svgs/thin/transporter-6.svg

<svg xmlns="http://www.w3.org/2000/svg" viewBox="0 0 512 512"><!-- Font Awesome Pro 6.0.0-alpha2 by @fontawesome - https://fontawesome.com License - https://fontawesome.com/license (Commercial License) --><path d="M104 272H408C412.406 272 416 268.422 416 264S412.406 256 408 256H104C99.594 256 96 259.578 96 264S99.594 272 104 272ZM88 40H56V8C56 3.578 52.406 0 48 0S40 3.578 40 8V40H8C3.594 40 0 43.578 0 48S3.594 56 8 56H40V88C40 92.422 43.594 96 48 96S56 92.422 56 88V56H88C92.406 56 96 52.422 96 48S92.406 40 88 40ZM232 16H280C284.406 16 288 12.422 288 8S284.406 0 280 0H232C227.594 0 224 3.578 224 8S227.594 16 232 16ZM504 392H472V360C472 355.578 468.406 352 464 352S456 355.578 456 360V392H424C419.594 392 416 395.578 416 400S419.594 408 424 408H456V440C456 444.422 459.594 448 464 448S472 444.422 472 440V408H504C508.406 408 512 404.422 512 400S508.406 392 504 392ZM376 448H136C113.938 448 96 465.938 96 488V504C96 508.422 99.594 512 104 512S112 508.422 112 504V488C112 474.766 122.781 464 136 464H376C389.219 464 400 474.766 400 488V504C400 508.422 403.594 512 408 512S416 508.422 416 504V488C416 465.938 398.062 448 376 448Z"/></svg>

<svg xmlns="http://www.w3.org/2000/svg" viewBox="0 0 512 512"><!--! Font Awesome Pro 6.3.0 by @fontawesome - https://fontawesome.com License - https://fontawesome.com/license (Commercial License) Copyright 2023 Fonticons, Inc. --><path d="M104 272h304C412.4 272 416 268.4 416 264S412.4 256 408 256h-304C99.59 256 96 259.6 96 264S99.59 272 104 272zM88 40h-32v-32C56 3.578 52.41 0 48 0S40 3.578 40 8v32h-32C3.594 40 0 43.58 0 48s3.594 8 8 8h32v32C40 92.42 43.59 96 48 96s8-3.578 8-8v-32h32C92.41 56 96 52.42 96 48S92.41 40 88 40zM232 16h48C284.4 16 288 12.42 288 8S284.4 0 280 0h-48C227.6 0 224 3.578 224 8S227.6 16 232 16zM504 392h-32v-32c0-4.422-3.594-8-8-8s-8 3.578-8 8v32h-32c-4.406 0-8 3.578-8 8s3.594 8 8 8h32v32c0 4.422 3.594 8 8 8s8-3.578 8-8v-32h32c4.406 0 8-3.578 8-8S508.4 392 504 392zM376 448h-240C113.9 448 96 465.9 96 488v16C96 508.4 99.59 512 104 512s8-3.578 8-8v-16c0-13.23 10.78-24 24-24h240c13.22 0 24 10.77 24 24v16c0 4.422 3.594 8 8 8S416 508.4 416 504v-16C416 465.9 398.1 448 376 448z"/></svg>
